X:8
T:Helen Gillis
R:march
C:Kinnon Beaton
B:One Hundred Fiddle Tunes, Kinnon Beaton
D:Andrea Beaton, The Tap Session
Z:Paul Stewart Cranford (P.S.C.), <http://www.cranfordpub.com>
L:1/8
M:C|
Q:244
K:Gdor
z|B2 AcA<G F2 G<A|
B2 A<B G2 F<G|G,2 G2 G2 A<B|A2 G<F d2 e<f|A2 G2 G3:|
|:A|G2 g2 d2 e<f|a2 g2 g2 a<g|f3 c d2 c<A|c2 F2 F2 G<A|
[1G2 g2 d2 e<f|a2 g2 g2 a<g|f3 c d2 c<A|B2 G2 G3:|
[2B2 A<B G2 F<G|G,2 G2 G2 A<B|A2 G<F d2 e<f|A2 G2 G3|]
